packages/foundations/assets/icons/functional/images/audio & video/fast_backward_30_32.svg

<svg width="32" height="32" viewBox="0 0 32 32" fill="none" xmlns="http://www.w3.org/2000/svg">
<g clip-path="url(#clip0_184_252)">
<path fill-rule="evenodd" clip-rule="evenodd" d="M7.76474 16.0805C9.58474 16.0805 10.9047 17.2445 10.9047 18.8485C10.9047 19.6515 10.6047 20.2765 10.1617 20.7645C10.9417 21.2925 11.4217 22.1735 11.4217 23.2305C11.4217 26.9105 6.77374 27.1355 5.02474 27.2195H4.97574C4.71714 27.2157 4.47004 27.1119 4.28634 26.9299C4.10264 26.7478 3.99662 26.5017 3.99054 26.2431C3.98446 25.9845 4.07879 25.7337 4.25373 25.5432C4.42866 25.3527 4.6706 25.2374 4.92874 25.2215C8.88874 25.0315 9.42074 24.1085 9.42074 23.2305C9.42074 22.5845 9.03374 22.2295 8.33074 22.2295C7.88374 22.2295 7.59574 22.2585 6.66874 22.4425C6.41176 22.4924 6.14546 22.4395 5.92702 22.2952C5.70859 22.151 5.55543 21.9268 5.50045 21.6709C5.44546 21.4149 5.49303 21.1476 5.63294 20.9264C5.77285 20.7051 5.99394 20.5475 6.24874 20.4875C7.45974 20.2065 8.90374 19.6955 8.90374 18.8475C8.90374 18.1365 8.03174 18.0805 7.76474 18.0805C7.11574 18.0805 6.44974 18.2605 5.66974 18.6455C5.43221 18.761 5.15862 18.7779 4.90869 18.6924C4.65877 18.6069 4.45282 18.426 4.3358 18.1892C4.21879 17.9524 4.20021 17.679 4.28414 17.4285C4.36806 17.178 4.54767 16.971 4.78374 16.8525C5.84974 16.3255 6.79674 16.0805 7.76474 16.0805ZM17.4757 4.78049C18.0237 4.78049 18.4747 5.19849 18.4747 5.77749C18.4754 5.90878 18.4501 6.03891 18.4004 6.16041C18.3506 6.28191 18.2773 6.39238 18.1847 6.48549L16.8647 7.80349C22.9847 7.73949 28.0097 12.6605 28.0097 18.7715C28.0097 21.4085 27.0757 23.9815 25.3037 25.9755L25.2277 26.0665C25.049 26.2378 24.8103 26.3322 24.5627 26.3295C23.9827 26.3295 23.5647 25.8795 23.5647 25.3005C23.5647 25.0755 23.6287 24.8505 23.7897 24.6575C25.226 23.0209 26.0163 20.9169 26.0127 18.7395C26.0127 13.5605 21.5997 9.57249 16.6057 9.79749L18.1847 11.3735C18.3777 11.5665 18.4747 11.8235 18.4747 12.0815C18.4766 12.2131 18.4521 12.3438 18.4025 12.4657C18.353 12.5877 18.2794 12.6984 18.1862 12.7914C18.0931 12.8844 17.9822 12.9577 17.8601 13.007C17.7381 13.0563 17.6074 13.0806 17.4757 13.0785C17.3443 13.0791 17.214 13.0538 17.0924 13.0041C16.9707 12.9543 16.8601 12.881 16.7667 12.7885L13.6107 9.63849C13.5182 9.54538 13.4449 9.43491 13.3951 9.31341C13.3454 9.19191 13.3201 9.06178 13.3207 8.93049C13.3197 8.66538 13.424 8.41072 13.6107 8.22249L16.7677 5.07049C16.8613 4.97799 16.9721 4.90485 17.0939 4.85525C17.2158 4.80566 17.3462 4.78059 17.4777 4.78149L17.4757 4.78049ZM17.3257 15.7805C19.6457 15.7805 21.3197 17.2805 21.3197 19.8005V22.7275C21.3197 25.2805 19.5797 26.7475 17.3257 26.7805C15.0707 26.8125 13.3627 25.2805 13.3627 22.7915V19.7045C13.3627 17.2805 15.1347 15.7805 17.3257 15.7805ZM17.3257 17.7745C15.9407 17.7745 15.3277 18.3855 15.3277 19.7045V22.7915C15.3277 24.2395 15.9077 24.8185 17.3257 24.8185C18.7107 24.8185 19.3557 24.1425 19.3557 22.7275V19.8005C19.3557 18.3535 18.7757 17.7745 17.3257 17.7745Z" fill="#1A1C1F"/>
</g>
<defs>
<clipPath id="clip0_184_252">
<rect width="32" height="32" fill="white"/>
</clipPath>
</defs>
</svg>

<svg xmlns="http://www.w3.org/2000/svg" width="32" height="32" fill="none"><g clip-path="url(#a)"><path fill="#1A1C1F" fill-rule="evenodd" d="M7.765 16.08c1.82 0 3.14 1.165 3.14 2.769 0 .802-.3 1.427-.743 1.916.78.527 1.26 1.409 1.26 2.465 0 3.68-4.648 3.906-6.397 3.99h-.05a1 1 0 0 1-.046-1.998c3.96-.19 4.492-1.114 4.492-1.992 0-.646-.387-1-1.09-1-.447 0-.735.029-1.662.212a1 1 0 0 1-.42-1.954c1.21-.282 2.655-.793 2.655-1.64 0-.711-.872-.767-1.14-.767-.648 0-1.314.18-2.094.564a1 1 0 0 1-.886-1.793c1.066-.526 2.013-.771 2.98-.771m9.71-11.3c.549 0 1 .418 1 .997a1 1 0 0 1-.29.708l-1.32 1.318c6.12-.064 11.145 4.858 11.145 10.968 0 2.637-.934 5.21-2.706 7.204l-.076.091a.95.95 0 0 1-.665.264c-.58 0-.998-.45-.998-1.03 0-.224.064-.45.225-.643a8.95 8.95 0 0 0 2.223-5.917c0-5.18-4.413-9.167-9.407-8.942l1.579 1.576c.193.192.29.45.29.707a.98.98 0 0 1-1 .998 1 1 0 0 1-.708-.29l-3.156-3.15a1 1 0 0 1-.29-.708 1 1 0 0 1 .29-.708l3.157-3.153a1 1 0 0 1 .71-.288zm-.15 11c2.32 0 3.995 1.5 3.995 4.02v2.927c0 2.553-1.74 4.02-3.994 4.053-2.255.032-3.963-1.5-3.963-3.989v-3.087c0-2.424 1.772-3.924 3.963-3.924m0 1.995c-1.384 0-1.997.61-1.997 1.93v3.087c0 1.447.58 2.026 1.998 2.026 1.385 0 2.03-.676 2.03-2.09V19.8c0-1.447-.58-2.026-2.03-2.026" clip-rule="evenodd"/></g><defs><clipPath id="a"><path fill="#fff" d="M0 0h32v32H0z"/></clipPath></defs></svg>
